common/svg/at-sign-icon.svg

<svg fill="none" height="20" viewBox="0 0 20 20" width="20" xmlns="http://www.w3.org/2000/svg"><path d="m13.3333 6.66666v4.16664c0 .6631.2634 1.299.7323 1.7678.4688.4688 1.1047.7322 1.7677.7322.6631 0 1.299-.2634 1.7678-.7322s.7322-1.1047.7322-1.7678v-.83331c-.0001-1.88081-.6364-3.70627-1.8056-5.17956-1.1691-1.47328-2.8022-2.50775-4.6338-2.93519s-3.75395-.22271-5.45444.58089c-1.70049.80361-3.07912 2.15882-3.91174 3.8453-.83262 1.68647-1.07024 3.60501-.67424 5.44367.396 1.8386 1.40234 3.4893 2.85538 4.6834 1.45305 1.1942 3.26734 1.8618 5.14787 1.8941 1.88057.0324 3.71667-.5724 5.20997-1.7159m-1.7334-6.61671c0 1.84091-1.4924 3.33331-3.3333 3.33331-1.84095 0-3.33334-1.4924-3.33334-3.33331 0-1.84095 1.49239-3.33333 3.33334-3.33333 1.8409 0 3.3333 1.49238 3.3333 3.33333z" stroke="#000" stroke-linecap="square" stroke-linejoin="round" stroke-width="1.85"/></svg>

<svg width="20" height="20" viewBox="0 0 20 20" fill="none" xmlns="http://www.w3.org/2000/svg">
<path d="M13.3333 6.66666V10.8333C13.3333 11.4964 13.5967 12.1323 14.0656 12.6011C14.5344 13.0699 15.1703 13.3333 15.8333 13.3333C16.4964 13.3333 17.1323 13.0699 17.6011 12.6011C18.0699 12.1323 18.3333 11.4964 18.3333 10.8333V9.99999C18.3332 8.11918 17.6969 6.29372 16.5277 4.82043C15.3586 3.34715 13.7255 2.31268 11.8939 1.88524C10.0623 1.4578 8.13995 1.66253 6.43946 2.46613C4.73897 3.26974 3.36034 4.62495 2.52772 6.31143C1.6951 7.9979 1.45748 9.91644 1.85348 11.7551C2.24948 13.5937 3.25582 15.2444 4.70886 16.4385C6.16191 17.6327 7.9762 18.3003 9.85673 18.3326C11.7373 18.365 13.5734 17.7602 15.0667 16.6167M13.3333 9.99999C13.3333 11.8409 11.8409 13.3333 10 13.3333C8.15905 13.3333 6.66666 11.8409 6.66666 9.99999C6.66666 8.15904 8.15905 6.66666 10 6.66666C11.8409 6.66666 13.3333 8.15904 13.3333 9.99999Z" stroke="black" stroke-width="1.85" stroke-linecap="square" stroke-linejoin="round"/>
</svg>
